build/svg/cmd/sc_deletecell.svg

<?xml version="1.0" encoding="UTF-8" standalone="no"?>
<svg
   xmlns:dc="http://purl.org/dc/elements/1.1/"
   xmlns:cc="http://creativecommons.org/ns#"
   xmlns:rdf="http://www.w3.org/1999/02/22-rdf-syntax-ns#"
   xmlns:svg="http://www.w3.org/2000/svg"
   xmlns="http://www.w3.org/2000/svg"
   xmlns:sodipodi="http://sodipodi.sourceforge.net/DTD/sodipodi-0.dtd"
   xmlns:inkscape="http://www.inkscape.org/namespaces/inkscape"
   viewBox="0 0 16 16"
   version="1.1"
   id="svg6"
   sodipodi:docname="sc_deletecell.svg"
   inkscape:version="0.92.5 (2060ec1f9f, 2020-04-08)"
   inkscape:export-filename="/home/jupiter007/Libreoffice yaru theme fullcolor/build/cmd/sc_deletecell.png"
   inkscape:export-xdpi="95"
   inkscape:export-ydpi="95">
  <metadata
     id="metadata12">
    <rdf:RDF>
      <cc:Work
         rdf:about="">
        <dc:format>image/svg+xml</dc:format>
        <dc:type
           rdf:resource="http://purl.org/dc/dcmitype/StillImage" />
      </cc:Work>
    </rdf:RDF>
  </metadata>
  <defs
     id="defs10" />
  <sodipodi:namedview
     pagecolor="#ffffff"
     bordercolor="#666666"
     borderopacity="1"
     objecttolerance="10"
     gridtolerance="10"
     guidetolerance="10"
     inkscape:pageopacity="0"
     inkscape:pageshadow="2"
     inkscape:window-width="1920"
     inkscape:window-height="1011"
     id="namedview8"
     showgrid="true"
     inkscape:zoom="41.7193"
     inkscape:cx="9.9322625"
     inkscape:cy="2.2263687"
     inkscape:window-x="1920"
     inkscape:window-y="32"
     inkscape:window-maximized="1"
     inkscape:current-layer="svg6">
    <inkscape:grid
       type="xygrid"
       id="grid822" />
  </sodipodi:namedview>
  <rect
     style="opacity:1;fill:#ffffff;fill-opacity:1;fill-rule:evenodd;stroke:none;stroke-width:2;stroke-linecap:butt;stroke-linejoin:round;stroke-miterlimit:4;stroke-dasharray:none;stroke-opacity:1"
     id="rect814"
     width="10"
     height="10"
     x="3"
     y="-13"
     transform="scale(1,-1)" />
  <path
     d="M 2,12 V 4 C 2,2 3,2 5,2 h 5 1 c 2,0 3,0 3,2 v 8 c 0,2 -1,2 -3,2 H 5 C 3,14 2,14 2,12 Z m 1,0 c 0,1 1,1 2,1 v -3 h 1 v 3 h 4 v -3 h 1 v 3 c 1,0 2,0 2,-1 V 10 H 11 V 9 h 2 V 6 H 11 V 5 h 2 V 4 C 13,3 12,3 11,3 V 5 H 10 V 3 H 6 V 5 H 5 V 3 C 4,3 3,3 3,4 V 5 H 5 V 6 H 3 v 3 h 2 v 1 H 3 Z"
     id="path2"
     inkscape:connector-curvature="0"
     style="fill:#6d6d6d;fill-opacity:1"
     sodipodi:nodetypes="ccccccccccccccccccccccccccccccccccccccccccccccc" />
  <path
     d="M 5,10 V 5 H 5.5 6 7.28125 8.71875 10 10.5 11 V 7.28125 10 H 10.5 6 Z M 6,9 H 7.28125 L 6,7.71875 Z M 8.71875,9 H 10 V 7.71875 L 8.28125,6 H 6 V 6.28125 Z M 10,6.28125 V 6 H 9.71875 Z"
     id="path4"
     inkscape:connector-curvature="0"
     style="fill:#c7162b" />
  <circle
     style="opacity:1;vector-effect:none;fill:#c7162b;fill-opacity:1;stroke:none;stroke-width:3.49999976;stroke-linecap:butt;stroke-linejoin:round;stroke-miterlimit:4;stroke-dasharray:none;stroke-dashoffset:0;stroke-opacity:1"
     id="path2644"
     cy="2.2586022e-09"
     cx="17.67767"
     r="3.5"
     transform="rotate(45)" />
  <path
     inkscape:connector-curvature="0"
     id="path1063"
     overflow="visible"
     font-weight="400"
     style="color:#000000;font-weight:400;line-height:normal;font-family:sans-serif;text-indent:0;text-align:start;text-decoration:none;text-decoration-line:none;text-decoration-style:solid;text-decoration-color:#000000;text-transform:none;white-space:normal;overflow:visible;isolation:auto;mix-blend-mode:normal;fill:#ffffff;fill-opacity:1;marker:none"
     d="m 13.914215,10.378681 -1.414214,1.414214 -1.414214,-1.414214 -0.707107,0.707106 1.414214,1.414215 -1.414213,1.414213 0.707106,0.707107 1.414214,-1.414214 1.414214,1.414214 0.707106,-0.707107 -1.414213,-1.414213 1.414213,-1.414214 z" />
</svg>

<svg xmlns="http://www.w3.org/2000/svg" viewBox="0 0 16 16"><path fill="#fff" fill-rule="evenodd" d="M3 13h10V3H3z"/><path d="M2 12V4c0-2 1-2 3-2h6c2 0 3 0 3 2v8c0 2-1 2-3 2H5c-2 0-3 0-3-2zm1 0c0 1 1 1 2 1v-3h1v3h4v-3h1v3c1 0 2 0 2-1v-2h-2V9h2V6h-2V5h2V4c0-1-1-1-2-1v2h-1V3H6v2H5V3C4 3 3 3 3 4v1h2v1H3v3h2v1H3z" fill="#6d6d6d"/><path d="M5 10V5H11v5H6zm1-1h1.281L6 7.719zm2.719 0H10V7.719L8.281 6H6v.281zM10 6.281V6h-.281z" fill="#c7162b"/><circle cx="17.678" r="3.5" transform="rotate(45)" fill="#c7162b"/><path overflow="visible" font-weight="400" style="line-height:normal;text-indent:0;text-align:start;text-decoration-line:none;text-decoration-style:solid;text-decoration-color:#000;text-transform:none;white-space:normal;isolation:auto;mix-blend-mode:normal;marker:none" d="M13.914 10.379L12.5 11.793l-1.414-1.414-.707.707 1.414 1.414-1.414 1.414.707.707 1.414-1.414 1.414 1.414.707-.707-1.414-1.414 1.414-1.414z" color="#000" font-family="sans-serif" fill="#fff"/></svg>
